X:1
T:Beautiful Words of Jesus
T:Isaac Hickman Meredith
T:Beautiful Words of Jesus
T:Public Domain
T:Public Domain
T:Public Domain
C:Isaac Hickman Meredith
Z:Public Domain
%%score ( 1 2 ) 3
L:1/8
M:6/8
K:F
V:1 treble 
V:2 treble 
V:3 bass 
V:1
 [FA][CG][CF] [Fc]2 [Fd] | [Fc]3 [FA]3 | [FA][Fc][FB] [FA]2 [EG] | [CF]6 | %4
w: 1.~Beau- ti- ful words of|Je- sus,|Spok- en so long a-|go,|
w: 2.~Beau- ti- ful words of|Je- sus,|Cheer- ing us day by|day;|
w: 3.~Beau- ti- ful words of|Je- sus,|Tok- ens of end- less|rest,|
 [DF][^CE][DF] (B^c)[Fd] | [Fc]3 [FA]3 | [EG][^D^F][EG] [Ge]2 [=F=d] | [Ec]6 | %8
w: Yet, as we sing * them|ver, Dear-|er to us they grow,|Call-|
w: Throw- ing a gleam * of|shine O-|ver a cloud- y way;|Cast-|
w: When, by and by, * we|ter In-|to His pre- sence blest;|There|
"^Duet Ladies’ Voices" [GB][GB][GB] ([Bd][Ac])[GB] | [FA]3 [Ac]3 | [GB][GB][GB] ([Bd][Ac])[GB] | %11
w: ing the hea- vy * la-|den, Call-|ing to hearts op- * pressed,|
w: ing on Him the * bur-|den We|are too weak to * bear;|
w: shall we see His * beau-|ty, Meet|with Him face to * face;|
 [FA]6 |"^All Voices" [FA][FA][FA] [FA]2 [FA] | [FB]3 [F=B]3 | [Fc][FA][CF] [FA]2 [EG] | [CF]6 || %16
w: “Come|un- to Me, ye wear-|y; Come,|I will give you rest.”||
w: He|will give grace suf- fi-|cient; He|will re- gard our prayer.|Hear|
w: There|shall we sing His glo-|ry, Prais-|ing His match- less grace.||
"^Refrain" (z [FA][FA] z) ([EA][EA]) | (z [EB][EB] [CEBc])[Ece][DBd] | z [EB][EB] (z [CE][CE]) | %19
w: |||
w: * * the *|* * * His voice,||
w: |||
 z [CF][CF] z [CF][CF] | z [CF][CF] (z [CF][CF]) | z [CE][CE] [G,CEG][CEc][EGe] | [EGe]3 [DFd]3 | %23
w: ||||
w: ||* * * load to|* Sav-|
w: ||||
 [CEc]6 | (z [FA][FA]) (z [_EA][EA]) | z [EB][EB] [CEBc][Ece][DBd] | z [EB][EB] (z [CE][CE]) | %27
w: ||||
w: ior’s||* * * Lean your||
w: ||||
 z [CF][CF] z [CF][CF] | z [FA][FA] (z [GA][GA]) | edA (cB)F | (z A,[A,CF]) (z B,[B,CE]) | %31
w: ||||
w: ||* * ing breast; * Come,||
w: ||||
 z [A,C][A,C] [A,CF]2 z |] %32
w: |
w: |
w: |
V:2
 x6 | x6 | x6 | x6 | x3 F2 x | x6 | x6 | x6 | x6 | x6 | x6 | x6 | x6 | x6 | x6 | x6 || %16
w: ||||o-||||||||||||
w: ||||sun-||||||||||||
w: ||||en-||||||||||||
 [Cc]3 [Cc]3 | [Cc-]3 x3 | [Cc]3 [B,B]3 | [A,A-]3 [A,A]3 | [A,A]3 [_A,_A]3 | [G,G-]3 x3 | x6 | x6 | %24
w: ||||||||
w: call of|so|sweet; *|Bring *|your *|the|||
w: ||||||||
 [Cc]3 .[Cc]2 x | [Cc-]3 x3 | [Cc]3 [B,B]3 | [A,A-]3 [A,A]3 | [Cc]3 [^C^c]3 | [FA]2 [DG]2 x2 | %30
w: ||||||
w: feet; *|heart|on *|His *|lov- *|O come,|
w: ||||||
 A3 G3 | F3- x3 |] %32
w: ||
w: and *|He|
w: ||
V:3
 [F,C][F,B,][F,A,] [F,A,]2 [F,B,] | [F,A,]3 [F,C]3 | [F,C][F,A,][B,,D] [C,C]2 [C,B,] | [F,A,]6 | %4
 [B,,B,][B,,B,][B,,B,] ([D,B,][C,A,])[B,,B,] | [F,A,]3 [F,C]3 | [G,C][G,C][G,C] [G,=B,]2 [G,B,] | %7
 [C,C]6 | G,B,C (EC)B, | (F,A,C) (FCA,) | G,B,C ECB, | (F,A,C FCA,) | %12
 [F,C][F,C][F,C] [_E,C]2 [E,C] | [D,B,]3 [_D,^G,]3 | [C,A,][C,C][C,A,] [C,C]2 [C,B,] | [F,A,]6 || %16
 [F,,F,]3 [^F,,^F,]3 | [G,,G,]3 [C,,C,]3 | [G,,G,]3 [C,,C,]3 | [F,,F,]3 [C,,C,]3 | %20
 [F,,F,]3 [F,,F,]3 | [G,,F,]3 [G,,G,]3 | (G,,G,A,) (=B,A,G,) | (C,G,A, B,A,G,) | %24
 [F,,F,]3 [^F,,^F,]3 | [G,,G,]3 [C,,C,]3 | [G,,G,]3 [C,,C,]3 | [F,,F,]3 [C,,C,]3 | %28
 [F,,F,]3 [E,,E,]3 | [D,,D,]3 [G,,G,]3 | C,,3 C,,3 | (E,C,A,, [F,,F,]2) z |] %32

